icons/triangle-check-outline.svg

<svg xmlns="http://www.w3.org/2000/svg" width="24" height="24" viewBox="0 0 24 24">
  <path d="M9.37135227,3.70432092 C10.1698214,2.25255887 11.9939942,1.72296031 13.4457562,2.52142944 C13.9442354,2.79559297 14.3544842,3.20584177 14.6286477,3.70432092 L14.6286477,3.70432092 L22.2461053,17.5542438 C23.0445744,19.0060058 22.5149759,20.8301786 21.0632138,21.6286477 C20.6202789,21.8722619 20.1229665,22 19.6174576,22 L19.6174576,22 L4.38254244,22 C2.72568819,22 1.38254244,20.6568542 1.38254244,19 C1.38254244,18.4944911 1.5102805,17.9971787 1.75389472,17.5542438 L1.75389472,17.5542438 Z M12.3764912,4.2235543 C11.9128771,4.03449217 11.3709293,4.2188035 11.1237841,4.66815842 L11.1237841,4.66815842 L3.50632653,18.5180813 C3.42512179,18.6657262 3.38254244,18.831497 3.38254244,19 C3.38254244,19.5522847 3.83025769,20 4.38254244,20 L4.38254244,20 L19.6174576,20 C19.7859605,20 19.9517313,19.9574206 20.0993763,19.8762159 C20.583297,19.6100595 20.7598298,19.0020019 20.4936735,18.5180813 L20.4936735,18.5180813 L12.8762159,4.66815842 C12.7848281,4.5019987 12.6480785,4.3652491 12.4819187,4.27386126 L12.4819187,4.27386126 Z M15.1616337,12.2501621 C15.543902,12.5874577 15.6069605,13.1518544 15.327,13.5624086 L15.2498499,13.6616216 L11.7204382,17.6616216 C11.3507811,18.0805663 10.7177952,18.1104909 10.3105198,17.7513955 L10.2207624,17.6616216 L8.75017421,15.994955 C8.38477067,15.580831 8.42426642,14.948899 8.83839043,14.5834955 C9.22065875,14.2461999 9.78851489,14.2539073 10.1610152,14.5828086 L10.2498499,14.6717117 L10.9700121,15.488 L13.7501742,12.3383784 C14.1155778,11.9242544 14.7475097,11.8847586 15.1616337,12.2501621 Z"/>
</svg>

<svg xmlns="http://www.w3.org/2000/svg" viewBox="0 0 24 24">
  <path d="M9.37 3.7a3 3 0 0 1 5.26 0l7.62 13.85A3 3 0 0 1 19.62 22H4.38a3 3 0 0 1-2.63-4.45zm3 .52a1 1 0 0 0-1.25.45L3.51 18.52A1 1 0 0 0 4.38 20h15.24a1 1 0 0 0 .87-1.48L12.88 4.67a1 1 0 0 0-.4-.4zm2.8 8.03a1 1 0 0 1 .16 1.31l-.08.1-3.53 4a1 1 0 0 1-1.4.1l-.1-.1L8.75 16a1 1 0 0 1 1.41-1.4l.09.08.72.82 2.78-3.15a1 1 0 0 1 1.41-.09z"/>
</svg>
